data/icons/scalable/actions/text-bold-symbolic.svg

<?xml version="1.0" encoding="UTF-8"?>
<svg height="16px" viewBox="0 0 16 16" width="16px" xmlns="http://www.w3.org/2000/svg">
    <path d="m 4 3 c -0.550781 0 -1 0.449219 -1 1 s 0.449219 1 1 1 h 5.03125 c 0.558594 0 0.980469 0.429688 0.972656 0.988281 l -0.011718 1.011719 h -2.945313 c -0.070313 -0.003906 -0.136719 -0.003906 -0.207031 0 h -1.753906 c -1.644532 -0.058594 -3.046876 1.246094 -3.105469 2.894531 v 0.035157 c 0.003906 1.683593 1.390625 3.070312 3.074219 3.070312 h 5.875 c 1.683593 0 3.070312 -1.390625 3.070312 -3.074219 l -0.003906 -3.929687 c 0 -1.640625 -1.359375 -2.996094 -3.003906 -2.996094 z m 2.972656 6 h 2.992188 l -0.011719 0.914062 c -0.007813 0.613282 -0.484375 1.085938 -1.097656 1.085938 h -1.839844 c -0.597656 0 -1.054687 -0.460938 -1.066406 -1.054688 c 0.03125 -0.550781 0.46875 -0.964843 1.023437 -0.945312 z m 0 0" fill="#222222"/>
</svg>

<svg xmlns="http://www.w3.org/2000/svg" width="16" height="16" viewBox="0 0 16 16"><path fill="#222" d="M4 3c-.55 0-1 .45-1 1s.45 1 1 1h5.031c.559 0 .98.43.973.988L9.992 7H7.047a2 2 0 0 0-.207 0H5.086A3.015 3.015 0 0 0 1.98 9.895v.035A3.09 3.09 0 0 0 5.055 13h5.875C12.613 13 14 11.61 14 9.926l-.004-3.93c0-1.64-1.36-2.996-3.004-2.996zm2.973 6h2.992l-.012.914A1.084 1.084 0 0 1 8.855 11h-1.84c-.597 0-1.054-.46-1.066-1.055A.98.98 0 0 1 6.973 9m0 0"/></svg>
